X: 29004
T: Navigator's Dream, The
R: reel
M: 4/4
K: Dmajor
|:A,E (3EED EDB,D|DEFA BAFA|dF (3FFF dFcF|EBBA FEED|
A,EED EDB,D|DEEA Bd d2|eB (3BBc DBAG|FBAG FE E2:|
|:eB (3BBB dFDF|eB (3BBB dAFA|Bbba feed|ebba bafd|
eB (3BBB dFDF|eB (3BBB dAFD|A,B,DE FABA|FdBA FE E2:|

